UI/POI/SVG/nature-overlook_solid_24px.svg

<svg width="24" height="24" viewBox="0 0 24 24" fill="none" xmlns="http://www.w3.org/2000/svg">
<path d="M10 4H6V2H10V4ZM2 22H8V20H2V22ZM16 22H22V20H16V22ZM18 2H14V4H18V2ZM22 18H16V16H8V18H2V12.61C2.0011 12.2145 2.11941 11.8282 2.34 11.5L6 6H18C18 6 20.71 10.06 21.67 11.5C21.8852 11.8265 21.9999 12.209 22 12.6V18ZM13 9H11V13H13V9Z" fill="#0F1621"/>
</svg>

<svg xmlns="http://www.w3.org/2000/svg" width="24" height="24" viewBox="0 0 24 24"><rect width="24" height="24" style="fill:none;opacity:0.11"/><path d="M10,4H6V2h4ZM2,22H8V20H2Zm14,0h6V20H16ZM18,2H14V4h4Zm4,16H16s0-2,0-2H8v2H2V12.61a2,2,0,0,1,.34-1.11L6,6H18s2.71,4.06,3.67,5.5A2,2,0,0,1,22,12.6S22,18,22,18ZM13,9H11v4h2Z"/></svg>
